X:1
T:Praise to the Lord, the Almighty
T:Praise to the Lord, the Almighty
%%score ( 1 2 ) ( 3 4 )
L:1/8
M:3/4
K:F
V:1 treble nm="Piano" snm="Pno."
V:2 treble 
V:3 bass nm="Piano" snm="Pno."
V:4 bass 
V:1
 [CF]2 [DF]2 [Cc]2 | [FA]3 [EG] [DF]2 | [CE]2 [B,D]2 [A,C]2 | [B,D]2 [B,E]2 [A,F]2 | G6 | [A,F]6 | %6
w: 1~Praise to the|Lord, the Al-|migh- ty, the|King of cre-|a-|tion!|
w: 2~Praise to the|Lord, a- bove|all things so|won- drou- sly|reig-|ning;|
w: 3~Praise to the|Lord, who will|pros- per your|work and de-|fend|you;|
w: 4~Praise to the|Lord! O let|all that is|in me a-|dore|him!|
 [CF]2 [DF]2 [Cc]2 | [FA]3 [EG] [DF]2 | [CE]2 [B,D]2 [A,C]2 | [B,D]2 [B,E]2 [A,F]2 | G6 | [A,F]6 | %12
w: O my soul,|praise him, for|he is your|health and sal-|va-|tion!|
w: shel- tering you|un- der his|wings, and so|gent- ly sus-|tain-|ing!|
w: sure- ly his|good- ness and|mer- cy shall|dai- ly at-|tend|you.|
w: All that has|life and breath,|come now with|prai- ses be-|fore|him.|
 [Fc]2 [Gc]2 [Fc]2 | [Fd]6 | [FA]2 [FB]2 [Gc]2 | [Fc]2 B2 [FA]2 | [EG]6 | C2 [B,D]2 [B,E]2 | %18
w: Come, all who|hear;|now to his|tem- ple draw|near,|join me in|
w: Have you not|seen|all that is|need- ful has|been|sent by his|
w: Pon- der a-|new|what the Al-|migh- ty can|do,|if with his|
w: Let the A-|men|sound from his|pe- ople a-|gain;|glad- ly for-|
 [A,F]2 [DG]2 [^CA]2 | G6 | [A,F]6 |] %21
w: glad a- do-|ra-|tion.|
w: gra- ious or-|dain-|ing?|
w: love he be-|friends|you.|
w: e- ver a-|dore|him.|
V:2
 x6 | x6 | x6 | x6 | (D2 C2 B,2) | x6 | x6 | x6 | x6 | x6 | (D2 C2 B,2) | x6 | x6 | x6 | x6 | %15
 x2 DE x2 | x6 | C2 x4 | x6 | (D4 CB,) | x6 |] %21
V:3
 [F,A,]2 [D,A,]2 [E,G,]2 | [F,C]3 [C,C] [D,A,]2 | [A,,A,]2 [B,,F,]2 [F,,F,]2 | %3
 [B,,F,]2 [G,,G,]2 [D,F,]2 | (([B,,F,]2 [C,E,]4)) | [F,,F,]6 | [F,A,]2 [D,A,]2 [E,G,]2 | %7
 [F,C]3 [C,C] [D,A,]2 | [A,,A,]2 [B,,F,]2 [F,,F,]2 | [B,,F,]2 [G,,G,]2 [D,F,]2 | %10
 (([B,,F,]2 [C,E,]4)) | [F,,F,]6 | [F,A,]2 [E,G,]2 [F,A,]2 | [B,,B,]6 | [F,C]2 [D,B,]2 [E,G,]2 | %15
 [F,A,]2 [G,C]2 C2 | [C,C]6 | [A,,C]2 [B,,F,]2 [G,,G,]2 | [D,F,]2 [B,,D,]2 [A,,E,]2 | %19
 (D,2 G,F, E,2) | [F,,F,]6 |] %21
V:4
 x6 | x6 | x6 | x6 | x6 | x6 | x6 | x6 | x6 | x6 | x6 | x6 | x6 | x6 | x6 | x4 A,F, | x6 | x6 | %18
 x6 | (B,,4 C,2) | x6 |] %21

